static/assets/images/icons/to-top-right.svg

<svg width="256" height="256" viewBox="0 0 256 256" fill="none" xmlns="http://www.w3.org/2000/svg">
<path fill-rule="evenodd" clip-rule="evenodd" d="M56.4645 181.733C50.9641 191.486 62.4042 203.947 72.5845 199.284C74.1621 198.562 75.7093 197.526 77.153 196.083L172.966 100.27L176.606 148.49C176.611 151.801 177.931 154.978 180.276 157.323C182.62 159.668 185.797 160.987 189.108 160.992C192.419 160.997 195.592 159.686 197.93 157.349C200.268 155.011 201.579 151.838 201.574 148.527L196.011 71.5638C195.5 64.492 189.799 58.9089 182.718 58.5465L107.757 54.7103C104.446 54.7055 101.273 56.0161 98.9353 58.3538C96.5975 60.6915 95.2869 63.8649 95.2918 67.1757C95.2966 70.4866 96.6164 73.6637 98.961 76.0083C101.306 78.3528 104.483 79.6727 107.794 79.6775L155.021 82.3252L59.2081 178.138C58.0613 179.285 57.1622 180.496 56.4645 181.733Z" fill="black"/>
</svg>

<svg xmlns="http://www.w3.org/2000/svg" viewBox="0 0 256 256"><path fill-rule="evenodd" d="M56.465 181.733c-5.5 9.753 5.94 22.214 16.12 17.551 1.577-.722 3.124-1.758 4.568-3.201l95.813-95.813 3.64 48.22a12.52 12.52 0 0 0 3.67 8.833 12.52 12.52 0 0 0 8.832 3.669 12.45 12.45 0 0 0 8.822-3.643 12.45 12.45 0 0 0 3.644-8.822l-5.563-76.963a14.05 14.05 0 0 0-13.293-13.017l-74.961-3.837a12.45 12.45 0 0 0-8.822 3.644 12.45 12.45 0 0 0-3.643 8.822 12.52 12.52 0 0 0 3.669 8.832 12.52 12.52 0 0 0 8.833 3.67l47.227 2.647-95.813 95.813a16.6 16.6 0 0 0-2.743 3.595" clip-rule="evenodd"/></svg>
